X:7
T:Off to California
T:The Whiskey Hornpipe
R:hornpipe
H:Used as tune for Red Stags Morris dance "The Prisoner"
C:Traditional.
M:4/4
L:1/8
K:G
((3DEF) | G>FG>B A>GE>D | G>Bd>g e2 e>f | g>fg>d e>dB>G |1 A>BA>G E2 :|2 ((3ABA) G>F G4 |]
g>fe>g f>e d2 | e>de>f e>d B2 | g>fg>d e>dB>G | A>BA>G E2((3DEF) |
G>FG>B A>GE>D | G>Bd>g e2 e>f | g>fg>d e>dB>G | ((3ABA) G>F G3 |]
